src/assets/img/logo.svg

<?xml version="1.0" encoding="UTF-8"?>
<svg width="168px" height="38px" viewBox="0 0 168 38" version="1.1" xmlns="http://www.w3.org/2000/svg" xmlns:xlink="http://www.w3.org/1999/xlink">
    <!-- Generator: Sketch 47.1 (45422) - http://www.bohemiancoding.com/sketch -->
    <title>logo</title>
    <desc>Created with Sketch.</desc>
    <defs></defs>
    <g id="Page-1" stroke="none" stroke-width="1" fill="none" fill-rule="evenodd">
        <g id="Artboard" transform="translate(-33.000000, -37.000000)">
            <g id="logo" transform="translate(26.000000, 30.000000)">
                <rect id="Rectangle" fill-opacity="0" fill="#D8D8D8" x="49" y="15" width="120" height="28"></rect>
                <g id="Group" transform="translate(54.000000, 11.000000)" fill="#FFFFFF">
                    <path d="M29.3100004,5.32981132 C34.3505213,5.32981132 38.4400005,9.41929054 38.4400005,14.4598114 C38.4400005,19.5003323 34.3505213,23.5898115 29.3100004,23.5898115 C24.2694795,23.5898115 20.1800003,19.5003323 20.1800003,14.4598114 C20.1800003,9.41929054 24.2694795,5.32981132 29.3100004,5.32981132 Z M29.3094303,18.9283019 C31.7818831,18.9283019 33.7788643,16.9313208 33.7788643,14.4588679 C33.7788643,11.9864151 31.7818831,9.98943396 29.3094303,9.98943396 C26.8369775,9.98943396 24.8399963,11.9864151 24.8399963,14.4588679 C24.8399963,16.9313208 26.8369775,18.9283019 29.3094303,18.9283019 Z M46.6253906,5.340625 L46.6475472,0.511698113 L41.8611321,0.511698113 L41.8214844,5.40351563 L40.0701172,5.428125 L40.0537109,9.5734375 L41.8458984,9.54941406 L41.8611321,18.674717 C41.8611321,21.5275472 43.9215094,23.5879245 46.7426415,23.5879245 C47.5033962,23.5879245 48.1690566,23.4611321 48.7713208,23.2392453 L49.2150943,23.0490566 L49.2150943,18.8015094 L48.3275472,19.1184906 C48.1690566,19.1501887 47.9788679,19.1818868 47.6935849,19.1818868 C47.3766038,19.1818868 46.6475472,19.1184906 46.6475472,18.674717 L46.6734375,9.6703125 L49.1533203,9.65039063 L49.0539063,5.35664063 L46.6253906,5.340625 Z M64.9056604,15.9486792 L69.3750943,17.1849057 C67.4415094,21.5909434 63.4158491,24.4437736 58.5977358,23.3660377 C54.2867925,22.4150943 51.085283,18.2309434 51.5290566,13.6030189 C52.5750943,2.50867925 68.0120755,2.95245283 69.1215094,13.8883019 C65.1909434,15.0928302 61.1969811,16.2022642 57.2030189,17.3750943 C59.485283,20.069434 63.5426415,18.9916981 64.9056604,15.9486792 Z M63.7962264,11.7011321 C62.4332075,8.05584906 55.3962264,10.1479245 56.1569811,13.9516981 L63.7962264,11.7011321 Z" id="notezzz"></path>
                    <polygon id="Path" points="85.6996226 18.6430189 77.5849057 18.6430189 85.4777358 9.86264151 85.4777358 5.71018868 71.2135849 5.71018868 71.2135849 10.274717 78.8528302 10.274717 70.7381132 19.0867925 70.7381132 23.2075472 85.6996226 23.2075472"></polygon>
                    <polygon id="Path-Copy" transform="translate(8.969886, 14.501497) rotate(90.000000) translate(-8.969886, -14.501497) " points="17.9373324 18.7927666 8.20980134 18.7927666 17.9679832 9.76350588 17.9713889 5.53149702 0.0245770434 5.54852528 -0.0316162109 10.2150932 9.72972807 10.2150932 0.00219704602 19.2476432 0.00219704602 23.4714976 17.9373324 23.4714976"></polygon>
                    <polygon id="Path" opacity="0.5" points="103.070189 18.6430189 94.9554717 18.6430189 102.848302 9.86264151 102.848302 5.71018868 88.5841509 5.71018868 88.5841509 10.274717 96.2233962 10.274717 88.1086792 19.0867925 88.1086792 23.2075472 103.070189 23.2075472"></polygon>
                    <polygon id="Path" opacity="0.2" points="120.440755 18.6430189 112.326038 18.6430189 120.218868 9.86264151 120.218868 5.71018868 105.954717 5.71018868 105.954717 10.274717 113.593962 10.274717 105.479245 19.0867925 105.479245 23.2075472 120.440755 23.2075472"></polygon>
                </g>
                <g id="Group" transform="translate(25.716053, 25.582081) rotate(-45.000000) translate(-25.716053, -25.582081) translate(8.216053, 8.082081)">
                    <circle id="Oval-Copy" stroke="#FFFFFF" stroke-width="2" opacity="0.3" cx="17.5" cy="17.5" r="17.5"></circle>
                    <polygon id="Path" fill="#FFFFFF" points="16.1613924 18.8577766 13.1683221 18.8577766 16.0795506 15.6194586 16.0795506 14.0879797 10.8182942 14.0879797 10.8182942 15.7714375 13.6359893 15.7714375 10.6429189 19.0214461 10.6429189 20.5412344 16.1613924 20.5412344"></polygon>
                    <polygon id="Path" fill="#FFFFFF" opacity="0.5" points="22.5684337 18.8577766 19.5753633 18.8577766 22.4865919 15.6194586 22.4865919 14.0879797 17.2253354 14.0879797 17.2253354 15.7714375 20.0430305 15.7714375 17.0499602 19.0214461 17.0499602 20.5412344 22.5684337 20.5412344"></polygon>
                    <polygon id="Path" fill="#FFFFFF" opacity="0.2" points="28.9754749 18.8577766 25.9824045 18.8577766 28.8936331 15.6194586 28.8936331 14.0879797 23.6323766 14.0879797 23.6323766 15.7714375 26.4500718 15.7714375 23.4570014 19.0214461 23.4570014 20.5412344 28.9754749 20.5412344"></polygon>
                    <polygon id="Triangle" fill="#FFFFFF" transform="translate(7.717609, 16.700313) rotate(27.000000) translate(-7.717609, -16.700313) " points="7.89468707 14.0793454 10.5401895 19.3212809 4.89502819 18.8335411"></polygon>
                </g>
            </g>
        </g>
    </g>
</svg>

<svg width="121" height="24" xmlns="http://www.w3.org/2000/svg"><g fill="none" fill-rule="evenodd"><path fill="none" d="M1 4h120v28H1z"/><g fill="#FFF"><path d="M29.31 5.33c5.04 0 9.13 4.09 9.13 9.13 0 5.04-4.09 9.13-9.13 9.13-5.04 0-9.13-4.09-9.13-9.13 0-5.04 4.09-9.13 9.13-9.13zm0 13.598a4.464 4.464 0 0 0 4.469-4.47 4.464 4.464 0 0 0-4.47-4.469 4.464 4.464 0 0 0-4.469 4.47 4.464 4.464 0 0 0 4.47 4.47zM46.624 5.341l.023-4.83H41.86l-.04 4.893-1.75.024-.017 4.145 1.792-.024.015 9.126c0 2.853 2.06 4.913 4.882 4.913.76 0 1.426-.127 2.028-.349l.444-.19v-4.247l-.887.316a3.009 3.009 0 0 1-.634.064c-.317 0-1.046-.064-1.046-.507l.025-9.005 2.48-.02-.1-4.293-2.428-.016zm18.28 10.608l4.47 1.236c-1.933 4.406-5.96 7.259-10.777 6.181-4.311-.95-7.513-5.135-7.069-9.763 1.046-11.094 16.483-10.65 17.593.285-3.931 1.205-7.925 2.314-11.919 3.487 2.282 2.694 6.34 1.617 7.703-1.426zM63.797 11.7c-1.363-3.645-8.4-1.553-7.639 2.25l7.64-2.25zM85.7 18.643h-8.115l7.893-8.78V5.71H71.214v4.565h7.639l-8.115 8.812v4.12H85.7zM4.679 23.469V13.74l9.029 9.759 4.232.003-.017-17.947-4.667-.056v9.761L4.224 5.534H0v17.935z"/><path opacity=".5" d="M103.07 18.643h-8.115l7.893-8.78V5.71H88.584v4.565h7.64l-8.115 8.812v4.12h14.961z"/><path opacity=".2" d="M120.44 18.643h-8.114l7.893-8.78V5.71h-14.264v4.565h7.639l-8.115 8.812v4.12h14.962z"/></g></g></svg>
